X:48
T:Galway Hornpipe, The
R:hornpipe
N:Bar 4 of 2nd part also played |(3ABA ^GB A2 (3ABc|
Z:id:hn-hornpipe-48
M:C|
K:D
FE|D2FA dAFD|CDEF GEFE|D2FA dcdf|(3efe (3dcB (3ABA (3GFE|
DEFA dAFD|CDEF G2FG|AdcB AGFE|(3DED CE D2:|
|:de|fefg fedc|B^ABc B2(3Bcd|e^def e=dcB|(3ABA ^GB A2 (3ABc|
dcde fdAF|GFGA B2(3dcB|AdcB AGFE|(3DED CE D2:|
